X: 1090
T: Ambrose Moloney's
R: reel
M: 4/4
K: Gmajor
~B3G ABGE|~D2BA BdAd|BG~G2 (3Bcd eg|gedB eA A2|
GDBG ~A2GE|~D2BA BdAd|BGG2 Bdeg|gedc BG G2||
dgbg ageg|gedB GA (3Bcd|~a3b ageB|dgbg ageB|
dgbg ageg|gedB GABd|~a3g e2fa|gedc BG G2||
"last bar" gedB G2 G2||

